X:3328
T:Connachtman's Rambles, The
R:jig
C:Traditional
Z: id:ng-jigs-5 
N:Transcribed by Alan Ng
M:6/8
K:D
E:8
AG|FAA dAA|BAB dAG|FAA dfe|dBB BAG|FAA dAA|BAB def|gfe dfe|dBB B2::\
e|fbb faa|fef def|fbb faa|fed e2 e|fbb faa|fef def|gfe dfe|dBB B2:|**


